X: 20062
M: 2/4
L: 1/8
K: G
e/f/ |\
gedB | cdef | gedB | A3 e/f/ |\
gedB | cde g | dBcA | G3 :|
|: G/A/ |\


